assets/plus.svg

<svg xmlns="http://www.w3.org/2000/svg" viewBox="0 0 448 512"><path d="M432 256c0 13.25-10.75 24-24 24H248v160c0 13.25-10.75 24-24 24s-24-10.75-24-24V280H40c-13.25 0-24-10.75-24-24s10.75-24 24-24h160V72c0-13.25 10.75-24 24-24s24 10.75 24 24v160h160c13.25 0 24 10.75 24 24Z"/></svg>

<svg xmlns="http://www.w3.org/2000/svg" viewBox="0 0 448 512"><!-- Font Awesome Pro 6.0.0-alpha2 by @fontawesome - https://fontawesome.com License - https://fontawesome.com/license (Commercial License) --><path d="M432 256C432 269.25 421.25 280 408 280H248V440C248 453.25 237.25 464 224 464S200 453.25 200 440V280H40C26.75 280 16 269.25 16 256S26.75 232 40 232H200V72C200 58.75 210.75 48 224 48S248 58.75 248 72V232H408C421.25 232 432 242.75 432 256Z"/></svg>
